!!!COM: Mozart, Wolfgang Amadeus
!!!OPR: Symphony in C Major
!!!OTL: Menuetto and Trio
!!!OMV: 3
!!!SCT: K 551
!!!SCA: Chronologisch-thematisches Verzeichnis sämtlicher Tonwerke Wolfgang Amade Mozarts (L. von Köchel; 1862, 2/1905, 3/1937, 1947)
!!!YOR: Breitkopf & Härtel Edition
!!!EED: Frances Bennion
!!!ENC: Frances Bennion
!!!CDT: 1756/1/27/-1791/12/5/
!!!OCY: Österreich
!!!YEC: Copyright (c) 1994, 2000 Center for Computer Assisted Research in the Humanities
!!!YEM: Rights to all derivative editions reserved.
!!!YEM: Refer to licensing agreement for further details.
!!!YEN: United States of America
**kern	**dynam	**kern	**dynam	**kern	**dynam	**kern	**dynam	**kern	**dynam	**kern	**dynam	**kern	**dynam	**kern	**dynam	**kern	**dynam	**kern	**dynam
*I:Flauto	*I:Flauto	*I:Violoncello e Basso	*I:Violoncello e Basso	*I:Oboe 1, 2	*I:Oboe 1, 2	*I:Fagotto 1, 2	*I:Fagotto 1, 2	*I:Corno 1, 2 in C	*I:Corno 1, 2 in C	*I:Tromba 1, 2 in C	*I:Tromba 1, 2 in C	*I:Timpani in C, G	*I:Timpani in C, G	*I:Violino I	*I:Violino I	*I:Violino II	*I:Violino II	*I:Viola	*I:Viola
*>[A,A,B,B,C,C]	*	*>[A,A,B,B,C,A,A,B,B,C,D,D]	*	*>[A,A,B,B,C,A,A,B,B,C,D,D]	*	*>[A,A,B,B,C,A,A,B,B,C,D,D]	*	*>[A,A,B,B,C,A,A,B,B,C,D,D]	*	*>[A,A,B,B,C,A,A,B,B,C,D,D]	*	*>[A,A,B,B,C,A,A,B,B,C,D,D]	*	*>[A,A,B,B,C,A,A,B,B,C,D,D]	*	*>[A,A,B,B,C,A,A,B,B,C,D,D]	*	*>[A,A,B,B,C,A,A,B,B,C,D,D]	*
*>A	*	*>A	*	*>A	*	*>A	*	*>A	*	*>A	*	*>A	*	*>A	*	*>A	*	*>A	*
*clefG2	*	*clefF4	*	*clefG2	*	*clefF4	*	*clefG2	*	*clefG2	*	*clefF4	*	*clefG2	*	*clefG2	*	*clefC3	*
*k[]	*	*k[]	*	*k[]	*	*k[]	*	*k[]	*	*k[]	*	*k[]	*	*k[]	*	*k[]	*	*k[]	*
*C:	*	*C:	*	*C:	*	*C:	*	*C:	*	*C:	*	*C:	*	*C:	*	*C:	*	*C:	*
*M3/4	*	*M3/4	*	*M3/4	*	*M3/4	*	*M3/4	*	*M3/4	*	*M3/4	*	*M3/4	*	*M3/4	*	*M3/4	*
! Allegretto.	!	!	!	!	!	!	!	!	!	!	!	!	!	!	!	!	!	!	!
*tb16	*	*tb16	*	*tb16	*	*tb16	*	*tb16	*	*tb16	*	*tb16	*	*tb16	*	*tb16	*	*tb16	*
=1-	=1-	=1-	=1-	=1-	=1-	=1-	=1-	=1-	=1-	=1-	=1-	=1-	=1-	=1-	=1-	=1-	=1-	=1-	=1-
*	*	*	*	*^	*	*^	*	*^	*	*^	*	*	*	*	*	*	*	*	*
2.r	.	2.r	.	2.r	2.r	.	2.r	2.r	.	2.r	2.r	.	2.r	2.r	.	2.r	.	(2gg\	p	(8e/L	p	2.r	.
.	.	.	.	.	.	.	.	.	.	.	.	.	.	.	.	.	.	.	.	8g/	.	.	.
.	.	.	.	.	.	.	.	.	.	.	.	.	.	.	.	.	.	.	.	8e/	.	.	.
.	.	.	.	.	.	.	.	.	.	.	.	.	.	.	.	.	.	.	.	8g/	.	.	.
.	.	.	.	.	.	.	.	.	.	.	.	.	.	.	.	.	.	4ff#\	.	8d/	.	.	.
.	.	.	.	.	.	.	.	.	.	.	.	.	.	.	.	.	.	.	.	8g/J	.	.	.
=2	=2	=2	=2	=2	=2	=2	=2	=2	=2	=2	=2	=2	=2	=2	=2	=2	=2	=2	=2	=2	=2	=2	=2
2.r	.	2.r	.	2.r	2.r	.	2.r	2.r	.	2.r	2.r	.	2.r	2.r	.	2.r	.	4ffn\	.	8c/L	.	2.r	.
.	.	.	.	.	.	.	.	.	.	.	.	.	.	.	.	.	.	.	.	8g/	.	.	.
.	.	.	.	.	.	.	.	.	.	.	.	.	.	.	.	.	.	4ee\	.	8c/	.	.	.
.	.	.	.	.	.	.	.	.	.	.	.	.	.	.	.	.	.	.	.	8g/	.	.	.
.	.	.	.	.	.	.	.	.	.	.	.	.	.	.	.	.	.	4dd\	.	8f/	.	.	.
.	.	.	.	.	.	.	.	.	.	.	.	.	.	.	.	.	.	.	.	8g/J)	.	.	.
=3	=3	=3	=3	=3	=3	=3	=3	=3	=3	=3	=3	=3	=3	=3	=3	=3	=3	=3	=3	=3	=3	=3	=3
2.r	.	4c\	p	2.r	2.r	.	2.r	2.r	.	8cc/	8e/	p	4cc/	4c/	p	4C/	p	8cc\)	.	(8e/L	.	4cc\	p
.	.	.	.	.	.	.	.	.	.	8r	8ryy	.	.	.	.	.	.	8r	.	8g/	.	.	.
.	.	4r	.	.	.	.	.	.	.	8g/	8g\	.	4r	4r	.	4r	.	8b'\	.	8d/	.	4r	.
.	.	.	.	.	.	.	.	.	.	8r	8ryy	.	.	.	.	.	.	8r	.	8g/	.	.	.
.	.	4r	.	.	.	.	.	.	.	8cc/	8e/	.	4r	4r	.	4r	.	8cc'\	.	8e/	.	4r	.
.	.	.	.	.	.	.	.	.	.	8r	8ryy	.	.	.	.	.	.	8r	.	8g/J	.	.	.
=4	=4	=4	=4	=4	=4	=4	=4	=4	=4	=4	=4	=4	=4	=4	=4	=4	=4	=4	=4	=4	=4	=4	=4
2.r	.	4G\	.	2.r	2.r	.	2.r	2.r	.	(2ee\	(2cc\	.	4g/	4G/	.	4GG/	.	(2ee\	.	8c/L	.	4g\	.
.	.	.	.	.	.	.	.	.	.	.	.	.	.	.	.	.	.	.	.	8g/	.	.	.
.	.	4r	.	.	.	.	.	.	.	.	.	.	4r	4r	.	4r	.	.	.	8c/	.	4r	.
.	.	.	.	.	.	.	.	.	.	.	.	.	.	.	.	.	.	.	.	8g/	.	.	.
.	.	4r	.	.	.	.	.	.	.	8dd'\)	8g\)	.	4r	4r	.	4r	.	8dd'\)	.	8B/	.	4r	.
.	.	.	.	.	.	.	.	.	.	8r	8r	.	.	.	.	.	.	8r	.	8g/J)	.	.	.
=5	=5	=5	=5	=5	=5	=5	=5	=5	=5	=5	=5	=5	=5	=5	=5	=5	=5	=5	=5	=5	=5	=5	=5
2.r	.	2.r	.	2.r	2.r	.	2.r	2.r	.	2.r	2.r	.	2.r	2.r	.	2.r	.	(2aa\	.	(8f/L	.	2.r	.
.	.	.	.	.	.	.	.	.	.	.	.	.	.	.	.	.	.	.	.	8g/	.	.	.
.	.	.	.	.	.	.	.	.	.	.	.	.	.	.	.	.	.	.	.	8f/	.	.	.
.	.	.	.	.	.	.	.	.	.	.	.	.	.	.	.	.	.	.	.	8g/	.	.	.
.	.	.	.	.	.	.	.	.	.	.	.	.	.	.	.	.	.	4gg\	.	8e/	.	.	.
.	.	.	.	.	.	.	.	.	.	.	.	.	.	.	.	.	.	.	.	8g/J	.	.	.
=6	=6	=6	=6	=6	=6	=6	=6	=6	=6	=6	=6	=6	=6	=6	=6	=6	=6	=6	=6	=6	=6	=6	=6
2.r	.	2.r	.	2.r	2.r	.	2.r	2.r	.	2.r	2.r	.	2.r	2.r	.	2.r	.	4ff#\	.	8d/L	.	2.r	.
.	.	.	.	.	.	.	.	.	.	.	.	.	.	.	.	.	.	.	.	8g/	.	.	.
.	.	.	.	.	.	.	.	.	.	.	.	.	.	.	.	.	.	4ffn\	.	8d/	.	.	.
.	.	.	.	.	.	.	.	.	.	.	.	.	.	.	.	.	.	.	.	8g/	.	.	.
.	.	.	.	.	.	.	.	.	.	.	.	.	.	.	.	.	.	4ee\	.	8c/	.	.	.
.	.	.	.	.	.	.	.	.	.	.	.	.	.	.	.	.	.	.	.	8g/J)	.	.	.
=7	=7	=7	=7	=7	=7	=7	=7	=7	=7	=7	=7	=7	=7	=7	=7	=7	=7	=7	=7	=7	=7	=7	=7
2.r	.	4G\	.	2.r	2.r	.	2.r	2.r	.	8dd\	8g\	.	4g/	4g/	.	4GG/	.	8dd\)	.	(8B/L	.	4g\	.
.	.	.	.	.	.	.	.	.	.	8r	8r	.	.	.	.	.	.	8r	.	8g/	.	.	.
.	.	4r	.	.	.	.	.	.	.	8cc\	8g\	.	4r	4r	.	4r	.	8cc'\	.	8A/	.	4r	.
.	.	.	.	.	.	.	.	.	.	8r	8r	.	.	.	.	.	.	8r	.	8g/	.	.	.
.	.	4r	.	.	.	.	.	.	.	8dd\	8g\	.	4r	4r	.	4r	.	8dd'\	.	8B/	.	4r	.
.	.	.	.	.	.	.	.	.	.	8r	8r	.	.	.	.	.	.	8r	.	8g/J	.	.	.
=8	=8	=8	=8	=8	=8	=8	=8	=8	=8	=8	=8	=8	=8	=8	=8	=8	=8	=8	=8	=8	=8	=8	=8
2.r	.	4C/	.	2.r	2.r	.	2.r	2.r	.	(2ff\	(2dd\	.	4c/	4CC/	.	4C/	.	(2ff\	.	8d/L	.	4c\	.
.	.	.	.	.	.	.	.	.	.	.	.	.	.	.	.	.	.	.	.	8g/	.	.	.
.	.	4r	.	.	.	.	.	.	.	.	.	.	4r	4r	.	4r	.	.	.	8d/	.	4r	.
.	.	.	.	.	.	.	.	.	.	.	.	.	.	.	.	.	.	.	.	8g/	.	.	.
.	.	4r	.	.	.	.	.	.	.	8ee'\)	8cc\)	.	4r	4r	.	4r	.	8ee'\)	.	8c/	.	4r	.
.	.	.	.	.	.	.	.	.	.	8r	8r	.	.	.	.	.	.	8r	.	8g/J)	.	.	.
=9	=9	=9	=9	=9	=9	=9	=9	=9	=9	=9	=9	=9	=9	=9	=9	=9	=9	=9	=9	=9	=9	=9	=9
*	*	*^	*	*	*	*	*	*	*	*	*	*	*	*	*	*	*	*	*	*	*	*	*
*	*	*	*	*	*	*	*	*v	*v	*	*	*	*	*	*	*	*	*	*	*	*	*	*	*
!	!	!	!	!	!	!	!	! a 2.	!	!	!	!	!	!	!	!	!	!	!	!	!	!	!
!	!	!	!	!	!	!	!	!	!	!	!	!	!	!	!	!	!	!	!	!	!	!	!
[2.ddd\	f	(8B/L	4G\	f	[2.dd/	[2.d/	f	(2B\	f	[2.dd/	[2.dd\	f	4g/	4g\	f	4GG/	f	(2ddd\	f	(2dd\	f	(8B/L	f
.	.	8d/	.	.	.	.	.	.	.	.	.	.	.	.	.	.	.	.	.	.	.	8d/	.
.	.	8B/	4r	.	.	.	.	.	.	.	.	.	4r	4ryy	.	4r	.	.	.	.	.	8B/	.
.	.	8d/	.	.	.	.	.	.	.	.	.	.	.	.	.	.	.	.	.	.	.	8d/	.
.	.	8B-/	4r	.	.	.	.	4B-\	.	.	.	.	4r	4ryy	.	4r	.	4ccc#\	.	4cc#\	.	8B-/	.
.	.	8d/J)	.	.	.	.	.	.	.	.	.	.	.	.	.	.	.	.	.	.	.	8d/J	.
=10	=10	=10	=10	=10	=10	=10	=10	=10	=10	=10	=10	=10	=10	=10	=10	=10	=10	=10	=10	=10	=10	=10	=10
2.ddd\_	.	(8A/L	4D\	.	2.dd/_	2.d/_	.	8A\)	.	4dd/]	4dd\]	.	4dd/	4dd\	.	2.r	.	8cccn\)	.	8ccn\)	.	8A/L	.
.	.	8d/	.	.	.	.	.	8r	.	.	.	.	.	.	.	.	.	8r	.	8r	.	8d/	.
.	.	8c/	4r	.	.	.	.	8c'\	.	4dd/	4dd\	.	4r	4ryy	.	.	.	8aa'\	.	8a'/	.	8c/	.
.	.	8d/	.	.	.	.	.	8r	.	.	.	.	.	.	.	.	.	8r	.	8r	.	8d/	.
.	.	8A/	4r	.	.	.	.	8A'\	.	4dd/	4dd\	.	4r	4ryy	.	.	.	8ff#'\	.	8f#'/	.	8A/	.
.	.	8d/J)	.	.	.	.	.	8r	.	.	.	.	.	.	.	.	.	8r	.	8r	.	8d/J)	.
=11	=11	=11	=11	=11	=11	=11	=11	=11	=11	=11	=11	=11	=11	=11	=11	=11	=11	=11	=11	=11	=11	=11	=11
2.ddd\_	.	(8Bn/L	4G\	.	2.dd/_	2.d/_	.	(2Bn\	.	[2.dd/	[2.dd\	.	4g/	4g\	.	4GG/	.	(2ddd\	.	(2dd\	.	(8Bn/L	.
.	.	8d/	.	.	.	.	.	.	.	.	.	.	.	.	.	.	.	.	.	.	.	8d/	.
.	.	8B/	4r	.	.	.	.	.	.	.	.	.	4r	4ryy	.	4r	.	.	.	.	.	8B/	.
.	.	8d/	.	.	.	.	.	.	.	.	.	.	.	.	.	.	.	.	.	.	.	8d/	.
.	.	8B-/	4r	.	.	.	.	4B-\	.	.	.	.	4r	4ryy	.	4r	.	4ccc#\	.	4cc#\	.	8B-/	.
.	.	8d/J)	.	.	.	.	.	.	.	.	.	.	.	.	.	.	.	.	.	.	.	8d/J	.
=12	=12	=12	=12	=12	=12	=12	=12	=12	=12	=12	=12	=12	=12	=12	=12	=12	=12	=12	=12	=12	=12	=12	=12
2.ddd\]	.	(8A/L	4D\	.	2.dd/]	2.d/]	.	8A\)	.	4dd/]	4dd\]	.	4dd/	4dd\	.	2.r	.	8cccn\)	.	8ccn\)	.	8A/L	.
.	.	8d/	.	.	.	.	.	8r	.	.	.	.	.	.	.	.	.	8r	.	8r	.	8d/	.
.	.	8c/	4r	.	.	.	.	8c'\	.	4dd/	4dd\	.	4r	4ryy	.	.	.	8aa'\	.	8a'/	.	8c/	.
.	.	8d/	.	.	.	.	.	8r	.	.	.	.	.	.	.	.	.	8r	.	8r	.	8d/	.
.	.	8A/	4r	.	.	.	.	8A'\	.	4dd/	4dd\	.	4r	4ryy	.	.	.	8ff#'\	.	8f#'/	.	8A/	.
.	.	8d/J)	.	.	.	.	.	8r	.	.	.	.	.	.	.	.	.	8r	.	8r	.	8d/J)	.
=13	=13	=13	=13	=13	=13	=13	=13	=13	=13	=13	=13	=13	=13	=13	=13	=13	=13	=13	=13	=13	=13	=13	=13
4ddd\	.	4Bn/	4BB\	.	4gg\	4dd\	.	4Bn\	.	4dd\	4g\	.	4dd\	4g\	.	4GG/	.	8ddd\	.	(8G/L	.	(8Bn\L	.
.	.	.	.	.	.	.	.	.	.	.	.	.	.	.	.	.	.	8r	.	8g/)	.	8d\)	.
4ddd\	.	4BB/	4BB\	.	4gg\	4dd\	.	4BB/	.	4dd\	4g\	.	4r	4r	.	4r	.	8ddd\	.	(8G/	.	(8B\	.
.	.	.	.	.	.	.	.	.	.	.	.	.	.	.	.	.	.	8r	.	8g/)	.	8d\)	.
4ddd\	.	4BB/	4BB\	.	4gg\	4dd\	.	4BB/	.	4dd\	4g\	.	4r	4r	.	4r	.	8ddd\	.	(8G/	.	(8B\	.
.	.	.	.	.	.	.	.	.	.	.	.	.	.	.	.	.	.	8r	.	8g/J)	.	8d\J)	.
=14	=14	=14	=14	=14	=14	=14	=14	=14	=14	=14	=14	=14	=14	=14	=14	=14	=14	=14	=14	=14	=14	=14	=14
*	*	*v	*v	*	*	*	*	*	*	*	*	*	*	*	*	*	*	*	*	*	*	*	*
4ccc\	.	4C/	.	4aa\	4ee\	.	4C/	.	4ee\	4cc\	.	4ee\	4cc\	.	4C/	.	2eee\	.	(8A/L	.	(8c\L	.
.	.	.	.	.	.	.	.	.	.	.	.	.	.	.	.	.	.	.	8g/)	.	8e\)	.
4ccc\	.	4C/	.	4aa\	4ee\	.	4C/	.	4ee\	4cc\	.	4r	4r	.	4r	.	.	.	(8A/	.	(8c\	.
.	.	.	.	.	.	.	.	.	.	.	.	.	.	.	.	.	.	.	8g/)	.	8e\)	.
4ccc\	.	4C/	.	4aa\	4ee\	.	4C/	.	4ee\	4cc\	.	4r	4r	.	4r	.	(8ccc\L	.	(8A/	.	(8c\	.
.	.	.	.	.	.	.	.	.	.	.	.	.	.	.	.	.	8aa\J)	.	8g/J)	.	8e\J)	.
=15	=15	=15	=15	=15	=15	=15	=15	=15	=15	=15	=15	=15	=15	=15	=15	=15	=15	=15	=15	=15	=15	=15
4aa\	.	4D\	.	4ff#\	4cc\	.	4D\	.	4dd/	4dd\	.	4dd/	4dd\	.	2.r	.	2ccc\	.	(8A/L	.	(8c\L	.
.	.	.	.	.	.	.	.	.	.	.	.	.	.	.	.	.	.	.	8f#/)	.	8d\)	.
4aa\	.	4D\	.	4ff#\	4cc\	.	4D\	.	4dd/	4dd\	.	4r	4ryy	.	.	.	.	.	(8A/	.	(8c\	.
.	.	.	.	.	.	.	.	.	.	.	.	.	.	.	.	.	.	.	8f#/)	.	8d\)	.
4aa\	.	4D\	.	4ff#\	4cc\	.	4D\	.	4dd/	4dd\	.	4r	4ryy	.	.	.	(8aa\L	.	(8A/	.	(8c\	.
.	.	.	.	.	.	.	.	.	.	.	.	.	.	.	.	.	8ff#\J)	.	8f#/J)	.	8d\J)	.
=16	=16	=16	=16	=16	=16	=16	=16	=16	=16	=16	=16	=16	=16	=16	=16	=16	=16	=16	=16	=16	=16	=16
4gg\	.	4GG/	.	4gg\	4b\	.	4GG/	.	4dd\	4g\	.	4dd\	4g\	.	4GG/	.	4gg\	.	4g/ 4B/	.	4d\ 4B\	.
4r	.	4r	.	4r	4r	.	4r	.	4r	4r	.	4r	4r	.	4r	.	4r	.	4r	.	4r	.
4r	.	4r	.	4r	4r	.	4r	.	4r	4r	.	4r	4r	.	4r	.	4r	.	4r	.	4r	.
=17:!!:	=17:!!:	=17:!!:	=17:!!:	=17:!!:	=17:!!:	=17:!!:	=17:!!:	=17:!!:	=17:!!:	=17:!!:	=17:!!:	=17:!!:	=17:!!:	=17:!!:	=17:!!:	=17:!!:	=17:!!:	=17:!!:	=17:!!:	=17:!!:	=17:!!:	=17:!!:
*>B	*	*>B	*	*>B	*	*	*>B	*	*>B	*	*	*>B	*	*	*>B	*	*>B	*	*>B	*	*>B	*
2.r	.	4GG/	p	(2dd\	(2b\	p	2.r	.	4g/	4G/	p	4g/	4G/	p	4GG/	p	(2d/	p	(2B/	p	2.r	.
.	.	4r	.	.	.	.	.	.	4g/	4G/	.	4r	4r	.	4r	.	.	.	.	.	.	.
.	.	4r	.	4cc#\	4a#\	.	.	.	4g/	4G/	.	4r	4r	.	4r	.	4c#/	.	4A#/	.	.	.
=18	=18	=18	=18	=18	=18	=18	=18	=18	=18	=18	=18	=18	=18	=18	=18	=18	=18	=18	=18	=18	=18	=18
*	*	*	*	*	*	*	*^	*	*	*	*	*	*	*	*	*	*	*	*	*	*	*
2.r	.	2.r	.	2ccn/	4an\	.	4r	4r	.	4g/	4G/	.	2.r	2.r	.	2.r	.	2cn/	.	2An/	.	4r	.
.	.	.	.	.	4f#\	.	(4A\	4F#\	p	4g/	4G/	.	.	.	.	.	.	.	.	.	.	(4F#/	p
.	.	.	.	4b/)	4g\)	.	4B\)	4G\	.	4g/	4G/	.	.	.	.	.	.	4B/)	.	4G/)	.	4G/)	.
=19	=19	=19	=19	=19	=19	=19	=19	=19	=19	=19	=19	=19	=19	=19	=19	=19	=19	=19	=19	=19	=19	=19	=19
2.r	.	4GG/	.	(2ffn\	(2dd\	.	(2d\	2B\	.	4g/	4G/	.	4g/	4G/	.	4GG/	.	(2fn/	.	(2d/	.	(2B/	.
.	.	4r	.	.	.	.	.	.	.	4g/	4G/	.	4r	4r	.	4r	.	.	.	.	.	.	.
.	.	4r	.	4ee\	[4cc\	.	4e\)	4c\	.	4g/	4G/	.	4r	4r	.	4r	.	4e/	.	[4c/	.	4c/)	.
=20	=20	=20	=20	=20	=20	=20	=20	=20	=20	=20	=20	=20	=20	=20	=20	=20	=20	=20	=20	=20	=20	=20	=20
2.r	.	2.r	.	2ee-/	4cc\]	.	4r	4r	.	4g/	4G/	.	2.r	2.r	.	2.r	.	2e-/	.	4c/]	.	4r	.
.	.	.	.	.	4a\	.	(4c\	4F#\	.	4g/	4G/	.	.	.	.	.	.	.	.	4A/	.	(4F#/	.
.	.	.	.	4dd/)	4b\)	.	4B\)	4G\	.	4g/	4G/	.	.	.	.	.	.	4d/)	.	4B/)	.	4G/)	.
=21	=21	=21	=21	=21	=21	=21	=21	=21	=21	=21	=21	=21	=21	=21	=21	=21	=21	=21	=21	=21	=21	=21	=21
4r	.	4GG/	.	(2aa\	(2ff\	.	(2d\	2B\	.	4g/	4G/	.	4g/	4G/	.	4GG/	.	(2a/	.	(2fn/	.	(2B/	.
4r	.	4r	.	.	.	.	.	.	.	4g/	4G/	.	4r	4r	.	4r	.	.	.	.	.	.	.
(4gg\	p	4r	.	4gg\	4een\)	.	4e\)	4c\	.	4g/	4G/	.	4r	4r	.	4r	.	4g/)	.	4en/)	.	4c/)	.
=22	=22	=22	=22	=22	=22	=22	=22	=22	=22	=22	=22	=22	=22	=22	=22	=22	=22	=22	=22	=22	=22	=22	=22
2aa\	.	4GG/	.	2ff#/	(4ee-\	.	(4e-/	4r	.	4g/	4G/	.	4g/	4G/	.	4GG/	.	(4f#/	.	(8A/L	.	4r	.
.	.	.	.	.	.	.	.	.	.	.	.	.	.	.	.	.	.	.	.	8c/	.	.	.
.	.	4r	.	.	[2dd\)	.	[2d/)	(4A\	.	4g/	4G/	.	4r	4r	.	4r	.	4dd\	.	8d/	.	(4A/	.
.	.	.	.	.	.	.	.	.	.	.	.	.	.	.	.	.	.	.	.	8c/	.	.	.
4bb\	.	4r	.	4ffn/	.	.	.	4B\	.	4g/	4G/	.	4r	4r	.	4r	.	4fn/)	.	8B/	.	4B/	.
.	.	.	.	.	.	.	.	.	.	.	.	.	.	.	.	.	.	.	.	8d/J)	.	.	.
=23	=23	=23	=23	=23	=23	=23	=23	=23	=23	=23	=23	=23	=23	=23	=23	=23	=23	=23	=23	=23	=23	=23	=23
2ccc\	.	4GG/	.	2een/	4dd\]	.	4d/]	4c\	.	4g/	4G/	.	4g/	4G/	.	4GG/	.	(4en/	.	(8G/L	.	4c/	.
.	.	.	.	.	.	.	.	.	.	.	.	.	.	.	.	.	.	.	.	8c/	.	.	.
.	.	4r	.	.	2cc\	.	2c/	4En\	.	4g/	4G/	.	4r	4r	.	4r	.	4cc\	.	8e/	.	4E/	.
.	.	.	.	.	.	.	.	.	.	.	.	.	.	.	.	.	.	.	.	8c/	.	.	.
4eee-\)	.	4r	.	4ff#/)	.	.	.	4F#\)	.	4g/	4G/	.	4r	4r	.	4r	.	4e-/)	.	8A/	.	4F#/	.
.	.	.	.	.	.	.	.	.	.	.	.	.	.	.	.	.	.	.	.	8c/J)	.	.	.
=24	=24	=24	=24	=24	=24	=24	=24	=24	=24	=24	=24	=24	=24	=24	=24	=24	=24	=24	=24	=24	=24	=24	=24
4ddd\	.	4GG/	.	4gg\	4b\	.	4B\	4G\	.	4g/	4G/	.	4g/	4G/	.	4GG/	.	4d/	.	4B/	.	4G/)	.
4r	.	4G\	f	4r	4r	.	4r	4r	.	4gg\	4g\	f	4r	4r	.	4r	.	4g/	f	4g/	f	4g\	f
4r	.	4G\	.	4r	4r	.	4r	4r	.	4gg\	4g\	.	4r	4r	.	4r	.	4g/	.	4g/	.	4g\	.
=25	=25	=25	=25	=25	=25	=25	=25	=25	=25	=25	=25	=25	=25	=25	=25	=25	=25	=25	=25	=25	=25	=25	=25
2.r	.	2G\	.	2.r	2.r	.	2.r	2.r	.	2gg\	2g\	.	2.r	2.r	.	2.r	.	2g/	.	2g/	.	2g\	.
.	.	8E\L	.	.	.	.	.	.	.	8ee/L	8e/L	.	.	.	.	.	.	8en/L	.	8en/L	.	8e\L	.
.	.	8C\J	.	.	.	.	.	.	.	8cc/J	8c/J	.	.	.	.	.	.	8c/J	.	8c/J	.	8c\J	.
=26	=26	=26	=26	=26	=26	=26	=26	=26	=26	=26	=26	=26	=26	=26	=26	=26	=26	=26	=26	=26	=26	=26	=26
4r	.	4G\	.	4r	4r	.	4r	4r	.	4gg\	4g/	.	4r	4r	.	4r	.	4g/	.	4g/	.	4g\	.
4ggg\	f	4r	.	4gg/	4gg\	f	4G/	4GG/	f	4g/	4g/	.	4g/	4g\	f	4GG/	f	4r	.	4r	.	4r	.
4ggg\	.	4r	.	4gg/	4gg\	.	4G/	4GG/	.	4g/	4g/	.	4g/	4g\	.	4GG/	.	4r	.	4r	.	4r	.
=27	=27	=27	=27	=27	=27	=27	=27	=27	=27	=27	=27	=27	=27	=27	=27	=27	=27	=27	=27	=27	=27	=27	=27
2ggg\	.	2.r	.	2gg/	2gg\	.	2G/	2GG/	.	2g\	2g\	.	2g/	2g\	.	4GG/	.	2.r	.	2.r	.	2.r	.
.	.	.	.	.	.	.	.	.	.	.	.	.	.	.	.	4GG/	.	.	.	.	.	.	.
8eeen\L	.	.	.	8een/L	8een\L	.	8E/L	8EE/L	.	8e/L	8e\L	.	8e/L	8e\L	.	4C/	.	.	.	.	.	.	.
8ccc\J	.	.	.	8cc/J	8cc\J	.	8C/J	8CC/J	.	8c/J	8c\J	.	8c/J	8c\J	.	.	.	.	.	.	.	.	.
=28	=28	=28	=28	=28	=28	=28	=28	=28	=28	=28	=28	=28	=28	=28	=28	=28	=28	=28	=28	=28	=28	=28	=28
(2gg\	.	2.r	.	(2gg/	(4g\	.	4G/	4GG/	.	4g/	4g\	.	4g/	4g\	.	4GG/	.	(2gg\	.	(8G/L	.	(2G/	.
.	.	.	.	.	.	.	.	.	.	.	.	.	.	.	.	.	.	.	.	8g/	.	.	.
.	.	.	.	.	4gg\	.	4r	4r	.	4r	4ryy	.	4r	4r	.	4r	.	.	.	8G/	.	.	.
.	.	.	.	.	.	.	.	.	.	.	.	.	.	.	.	.	.	.	.	8g/	.	.	.
4ff#\	.	.	.	4ff#/	4ff#\	.	4r	4r	.	4r	4ryy	.	4r	4r	.	4r	.	4ff#\	.	8A/	.	4A/	.
.	.	.	.	.	.	.	.	.	.	.	.	.	.	.	.	.	.	.	.	8g/J)	.	.	.
=29	=29	=29	=29	=29	=29	=29	=29	=29	=29	=29	=29	=29	=29	=29	=29	=29	=29	=29	=29	=29	=29	=29	=29
4ffn\	.	2.r	.	4ffn/	4ffn\	.	2.r	2.r	.	2.r	2.r	.	2.r	2.r	.	2.r	.	4ffn\	.	(8B/L	.	4B/	.
.	.	.	.	.	.	.	.	.	.	.	.	.	.	.	.	.	.	.	.	8g/	.	.	.
4ee\	.	.	.	4ee/	4ee\	.	.	.	.	.	.	.	.	.	.	.	.	4ee\	.	8c/	.	4c\	.
.	.	.	.	.	.	.	.	.	.	.	.	.	.	.	.	.	.	.	.	8g/	.	.	.
4dd\)	.	.	.	4dd/)	4dd\)	.	.	.	.	.	.	.	.	.	.	.	.	4dd\)	.	8d/	.	4d\)	.
.	.	.	.	.	.	.	.	.	.	.	.	.	.	.	.	.	.	.	.	8g/J)	.	.	.
=30	=30	=30	=30	=30	=30	=30	=30	=30	=30	=30	=30	=30	=30	=30	=30	=30	=30	=30	=30	=30	=30	=30	=30
*	*	*	*	*v	*v	*	*	*	*	*	*	*	*	*	*	*	*	*	*	*	*	*	*
!	!	!	!	! a 2.	!	!	!	!	!	!	!	!	!	!	!	!	!	!	!	!	!	!
!	!	!	!	!	!	!	!	!	!	!	!	!	!	!	!	!	!	!	!	!	!	!
*	*	*	*	*	*	*v	*v	*	*	*	*	*	*	*	*	*	*	*	*	*	*	*
!	!	!	!	!	!	! a 2.	!	!	!	!	!	!	!	!	!	!	!	!	!	!	!
!	!	!	!	!	!	!	!	!	!	!	!	!	!	!	!	!	!	!	!	!	!
2cc\	.	(2c\	.	2cc\	.	(2c\	.	4cc/	4c/	.	4cc/	4c/	.	2C/	.	4cc\	.	(8e/L	.	(2e\	.
.	.	.	.	.	.	.	.	.	.	.	.	.	.	.	.	.	.	8g/	.	.	.
.	.	.	.	.	.	.	.	4cc/	4c/	.	4cc/	4c/	.	.	.	4c/	.	8e/	.	.	.
.	.	.	.	.	.	.	.	.	.	.	.	.	.	.	.	.	.	8g/	.	.	.
(8ddT\L	.	4B\	.	(8ddT\L	.	4B\	.	4cc/	4c/	.	4cc/	4c/	.	8C/L	.	(8ddT\L	.	8f/	.	4f\	.
16cc\L	.	.	.	16cc\L	.	.	.	.	.	.	.	.	.	8C/J	.	16cc\L	.	8d/J)	.	.	.
16dd\JJ	.	.	.	16dd\JJ	.	.	.	.	.	.	.	.	.	.	.	16dd\JJ	.	.	.	.	.
=31	=31	=31	=31	=31	=31	=31	=31	=31	=31	=31	=31	=31	=31	=31	=31	=31	=31	=31	=31	=31	=31
4ee\)	.	4B-\	.	4ee\)	.	4B-\	.	4cc/	4c/	.	4cc/	4c/	.	4C/	.	4ee\)	.	(8g/L	.	4g\	.
.	.	.	.	.	.	.	.	.	.	.	.	.	.	.	.	.	.	8cc/	.	.	.
4ff'\	.	4A\	.	4ff'\	.	4A\	.	4cc/	4c/	.	4cc/	4c/	.	4C/	.	4ff'\	.	8f/	.	4f\	.
.	.	.	.	.	.	.	.	.	.	.	.	.	.	.	.	.	.	8cc/	.	.	.
4gg'\	.	4G\)	.	4gg'\	.	4G\)	.	4cc/	4c/	.	4cc/	4c/	.	4C/	.	4gg'\	.	8e/	.	4e\)	.
.	.	.	.	.	.	.	.	.	.	.	.	.	.	.	.	.	.	8cc/J)	.	.	.
=32	=32	=32	=32	=32	=32	=32	=32	=32	=32	=32	=32	=32	=32	=32	=32	=32	=32	=32	=32	=32	=32
(2aa\	.	4F\	.	(2aa\	.	4F\	.	4cc/	4c/	.	4cc/	4c/	.	4C/	.	(2aa\	.	(8f/L	.	(2f\	.
.	.	.	.	.	.	.	.	.	.	.	.	.	.	.	.	.	.	8cc/	.	.	.
.	.	4r	.	.	.	4r	.	4r	4r	.	4r	4r	.	4r	.	.	.	8f/	.	.	.
.	.	.	.	.	.	.	.	.	.	.	.	.	.	.	.	.	.	8a/	.	.	.
4gg#\	.	4r	.	4gg#\	.	4r	.	4r	4r	.	4r	4r	.	4r	.	4gg#\	.	8e/	.	4e\	.
.	.	.	.	.	.	.	.	.	.	.	.	.	.	.	.	.	.	8a/J)	.	.	.
=33	=33	=33	=33	=33	=33	=33	=33	=33	=33	=33	=33	=33	=33	=33	=33	=33	=33	=33	=33	=33	=33
*	*	*	*	*	*	*^	*	*	*	*	*	*	*	*	*	*	*	*	*	*	*
4ggn\	.	2.r	.	4ggn\	.	2.r	2.r	.	2.r	2.r	.	2.r	2.r	.	2.r	.	4ggn\	.	(8c#/L	.	4c#\	.
.	.	.	.	.	.	.	.	.	.	.	.	.	.	.	.	.	.	.	8a/	.	.	.
4ff#\	.	.	.	4ff#\	.	.	.	.	.	.	.	.	.	.	.	.	4ff#\	.	8d/	.	4d\)	.
.	.	.	.	.	.	.	.	.	.	.	.	.	.	.	.	.	.	.	8a/	.	.	.
4ee\)	.	.	.	4ee\)	.	.	.	.	.	.	.	.	.	.	.	.	4ee\	.	8g/	.	4g\	.
.	.	.	.	.	.	.	.	.	.	.	.	.	.	.	.	.	.	.	8a/J)	.	.	.
=34	=34	=34	=34	=34	=34	=34	=34	=34	=34	=34	=34	=34	=34	=34	=34	=34	=34	=34	=34	=34	=34	=34
*	*	*	*	*	*	*v	*v	*	*	*	*	*	*	*	*	*	*	*	*	*	*	*
4dd\	.	(2d\	.	4dd\	.	(2d\	.	2dd/	2dd\	.	2dd/	2dd\	.	2.r	.	4dd\)	.	(8f#\L	.	2f#\	.
.	.	.	.	.	.	.	.	.	.	.	.	.	.	.	.	.	.	8a\	.	.	.
4ff#\	.	.	.	4ff#\	.	.	.	.	.	.	.	.	.	.	.	4d/	.	8dd\	.	.	.
.	.	.	.	.	.	.	.	.	.	.	.	.	.	.	.	.	.	8a\	.	.	.
(8ggT\L	.	4c#\	.	(8ggT\L	.	4c#\	.	4r	4ryy	.	4r	4ryy	.	.	.	(8ggT\L	.	8ee\	.	[4a\	.
16ff#\L	.	.	.	16ff#\L	.	.	.	.	.	.	.	.	.	.	.	16ff#\L	.	8a\J)	.	.	.
16gg\JJ	.	.	.	16gg\JJ	.	.	.	.	.	.	.	.	.	.	.	16gg\JJ	.	.	.	.	.
=35	=35	=35	=35	=35	=35	=35	=35	=35	=35	=35	=35	=35	=35	=35	=35	=35	=35	=35	=35	=35	=35
4aa\)	.	4cn\	.	4aa\)	.	4cn\	.	4dd/	4dd\	.	4dd/	4dd\	.	2.r	.	4aa\)	.	(8ff#\L	.	(4a\]	.
.	.	.	.	.	.	.	.	.	.	.	.	.	.	.	.	.	.	8dd\)	.	.	.
4bb'\	.	4Bn\	.	4bb'\	.	4Bn\	.	4dd/	4dd\	.	4dd/	4dd\	.	.	.	4bb'\	.	(8gg\	.	4g\	.
.	.	.	.	.	.	.	.	.	.	.	.	.	.	.	.	.	.	8dd\)	.	.	.
4ccc'\	.	4A\)	.	4ccc'\	.	4A\)	.	4dd/	4dd\	.	4dd/	4dd\	.	.	.	4ccc'\	.	(8aa\	.	4f#\)	.
.	.	.	.	.	.	.	.	.	.	.	.	.	.	.	.	.	.	8dd\J)	.	.	.
=36	=36	=36	=36	=36	=36	=36	=36	=36	=36	=36	=36	=36	=36	=36	=36	=36	=36	=36	=36	=36	=36
(2ddd\	.	4G\	.	(2ddd\	.	4G\	.	4dd\	4g\	.	4dd\	4g\	.	2.r	.	(2ddd\	.	(8bb\L	.	4g\	.
.	.	.	.	.	.	.	.	.	.	.	.	.	.	.	.	.	.	8dd\	.	.	.
.	.	4r	.	.	.	4r	.	4r	4r	.	4r	4r	.	.	.	.	.	8b\	.	(4b\	.
.	.	.	.	.	.	.	.	.	.	.	.	.	.	.	.	.	.	8dd\	.	.	.
4ccc#\	.	4r	.	4ccc#\	.	4r	.	4r	4r	.	4r	4r	.	.	.	4ccc#\	.	8a#\	.	4a#\	.
.	.	.	.	.	.	.	.	.	.	.	.	.	.	.	.	.	.	8dd\J)	.	.	.
=37	=37	=37	=37	=37	=37	=37	=37	=37	=37	=37	=37	=37	=37	=37	=37	=37	=37	=37	=37	=37	=37
*	*	*	*	*	*	*^	*	*	*	*	*	*	*	*	*	*	*	*	*	*	*
4cccn\	.	2.r	.	4cccn\	.	2.r	2.r	.	2.r	2.r	.	2.r	2.r	.	2.r	.	4cccn\	.	(8an\L	.	4an\	.
.	.	.	.	.	.	.	.	.	.	.	.	.	.	.	.	.	.	.	8dd\	.	.	.
4bb\	.	.	.	4bb\	.	.	.	.	.	.	.	.	.	.	.	.	4bb\	.	8g\	.	4g\	.
.	.	.	.	.	.	.	.	.	.	.	.	.	.	.	.	.	.	.	8dd\	.	.	.
4aa\)	.	.	.	4aa\)	.	.	.	.	.	.	.	.	.	.	.	.	4aa\	.	8cc\	.	4cc\	.
.	.	.	.	.	.	.	.	.	.	.	.	.	.	.	.	.	.	.	8dd\J)	.	.	.
=38	=38	=38	=38	=38	=38	=38	=38	=38	=38	=38	=38	=38	=38	=38	=38	=38	=38	=38	=38	=38	=38	=38
*	*	*	*	*	*	*v	*v	*	*	*	*	*	*	*	*	*	*	*	*	*	*	*
2gg\	.	(2g\	.	2gg\	.	(2g\	.	4g/	4g\	.	4g/	4g\	.	2GG/	.	4gg\)	.	(8b/L	.	4b\)	.
.	.	.	.	.	.	.	.	.	.	.	.	.	.	.	.	.	.	8dd/	.	.	.
.	.	.	.	.	.	.	.	4g/	4g\	.	4g/	4g\	.	.	.	4g/	.	8b/	.	2d\	.
.	.	.	.	.	.	.	.	.	.	.	.	.	.	.	.	.	.	8d/	.	.	.
(8aaT\L	.	4f#\	.	(8aaT\L	.	4f#\	.	4g/	4g\	.	4g/	4g\	.	8GG/L	.	(8aaT\L	.	8cc/	.	.	.
16gg\L	.	.	.	16gg\L	.	.	.	.	.	.	.	.	.	8GG/J	.	16gg\L	.	8d/J)	.	.	.
16aa\JJ	.	.	.	16aa\JJ	.	.	.	.	.	.	.	.	.	.	.	16aa\JJ	.	.	.	.	.
=39	=39	=39	=39	=39	=39	=39	=39	=39	=39	=39	=39	=39	=39	=39	=39	=39	=39	=39	=39	=39	=39
*	*	*	*	*^	*	*	*	*	*	*	*	*	*	*	*	*	*	*	*	*	*
4bb\)	.	4fn\	.	4bb\)	2ryy	.	4fn\	.	4g/	4g\	.	4g/	4g\	.	4GG/	.	4bb\)	.	(8dd\L	.	(4g\	.
.	.	.	.	.	.	.	.	.	.	.	.	.	.	.	.	.	.	.	8gg\)	.	.	.
4ccc'\	.	4e\	.	4ccc'\	.	.	4e\	.	4g/	4g\	.	4g/	4g\	.	4GG/	.	4ccc'\	.	(8cc\	.	4a\	.
.	.	.	.	.	.	.	.	.	.	.	.	.	.	.	.	.	.	.	8gg\)	.	.	.
4ddd'\	.	4d\)	.	4bb'\	4ff\	.	4d\)	.	4g/	4g\	.	4g/	4g\	.	4GG/	.	4ddd'\	.	(8b\	.	4b\)	.
.	.	.	.	.	.	.	.	.	.	.	.	.	.	.	.	.	.	.	8gg\J)	.	.	.
=40	=40	=40	=40	=40	=40	=40	=40	=40	=40	=40	=40	=40	=40	=40	=40	=40	=40	=40	=40	=40	=40	=40
4eee'\	.	4c'\	.	4ccc'\	4gg\	.	4c'\	.	4cc/	4c/	.	4cc/	4c/	.	4C/	.	4eee'\	.	4cc'\	.	4cc'\	.
(4bb\	.	(4d\	.	(4ff\	4dd\	.	(4d\	.	4r	4r	.	4r	4r	.	4r	.	(4bb\	.	(4b\	.	(4fn\	.
4ccc\)	.	4e\)	.	4ee\)	4cc\	.	4e\)	.	4r	4r	.	4r	4r	.	4r	.	4ccc\)	.	4cc\)	.	4g\)	.
=41	=41	=41	=41	=41	=41	=41	=41	=41	=41	=41	=41	=41	=41	=41	=41	=41	=41	=41	=41	=41	=41	=41
4aa'\	.	4F'\	.	4r	4r	.	4F'\	.	4cc/	4c/	.	4cc/	4c/	.	4C/	.	4aa'\	.	4a'/	.	4c'/	.
(4ee\	.	(4G\	.	4b-\	(4g/	.	(4G\	.	4r	4r	.	4r	4r	.	4r	.	(4ee\	.	(4e/	.	(4B-/	.
4ff\)	.	4A\)	.	4a/	4f/)	.	4A\)	.	4r	4r	.	4r	4r	.	4r	.	4ff\)	.	4f/)	.	4A/)	.
=42	=42	=42	=42	=42	=42	=42	=42	=42	=42	=42	=42	=42	=42	=42	=42	=42	=42	=42	=42	=42	=42	=42
(8gg\L	.	4G\	.	(8gg\L	8ee\L	.	4G\	.	4g/	4g\	.	4g/	4g\	.	4GG/	.	(8gg\L	.	(8e/L	.	4G/	.
8aa\)	.	.	.	8aa\)	8ff\	.	.	.	.	.	.	.	.	.	.	.	8aa\)	.	8f/)	.	.	.
8gg\	.	4G\	.	8gg\	8ee\	.	4G\	.	4g/	4g\	.	4g/	4g\	.	4GG/	.	8gg\	.	8e/	.	4G/	.
8ee\	.	.	.	8ee\	8cc\	.	.	.	.	.	.	.	.	.	.	.	8ee\	.	8c/	.	.	.
8ff\	.	4G\	.	8ff\	8dd\	.	4G\	.	4g/	4g\	.	4g/	4g\	.	4GG/	.	8ff\	.	8d/	.	4G/	.
8dd\J	.	.	.	8dd\J	8bn\J	.	.	.	.	.	.	.	.	.	.	.	8dd\J	.	8B/J	.	.	.
=43	=43	=43	=43	=43	=43	=43	=43	=43	=43	=43	=43	=43	=43	=43	=43	=43	=43	=43	=43	=43	=43	=43
4cc\	.	4C/	.	(8cc/L	4cc\	.	4C/	.	4g/	4e/	.	4g/	4e/	.	4C/	.	4cc\	.	4c/	.	4E/	.
.	.	.	.	8bn/)	.	.	.	.	.	.	.	.	.	.	.	.	.	.	.	.	.	.
4r	.	4r	.	8cc'/	4r	.	4r	.	4r	4r	.	4r	4r	.	4r	.	4r	.	4r	.	4r	.
.	.	.	.	8dd'/	.	.	.	.	.	.	.	.	.	.	.	.	.	.	.	.	.	.
4r	.	4r	.	8ee'/	4r	.	4r	.	4r	4r	.	4r	4r	.	4r	.	4r	.	4r	.	4r	.
.	.	.	.	8ff'/J	.	.	.	.	.	.	.	.	.	.	.	.	.	.	.	.	.	.
=44	=44	=44	=44	=44	=44	=44	=44	=44	=44	=44	=44	=44	=44	=44	=44	=44	=44	=44	=44	=44	=44	=44
*	*	*	*	*	*	*	*^	*	*	*	*	*	*	*	*	*	*	*	*	*	*	*
2.r	.	2.r	.	4gg/	(2gg\	p	2.r	2.r	.	2.r	2.r	.	2.r	2.r	.	2.r	.	2.r	.	2.r	.	2.r	.
.	.	.	.	4r	.	.	.	.	.	.	.	.	.	.	.	.	.	.	.	.	.	.	.
.	.	.	.	4r	4ff#\	.	.	.	.	.	.	.	.	.	.	.	.	.	.	.	.	.	.
=45	=45	=45	=45	=45	=45	=45	=45	=45	=45	=45	=45	=45	=45	=45	=45	=45	=45	=45	=45	=45	=45	=45	=45
*	*	*	*	*	*	*	*v	*v	*	*	*	*	*	*	*	*	*	*	*	*	*	*	*
!	!	!	!	!	!	!	! I.	!	!	!	!	!	!	!	!	!	!	!	!	!	!	!
!	!	!	!	!	!	!	!	!	!	!	!	!	!	!	!	!	!	!	!	!	!	!
2.r	.	2.r	.	2.r	4ffn\	.	(2g\	p	2.r	2.r	.	2.r	2.r	.	2.r	.	2.r	.	2.r	.	2.r	.
.	.	.	.	.	4ee\	.	.	.	.	.	.	.	.	.	.	.	.	.	.	.	.	.
.	.	.	.	.	4ee-\)	.	4f#\	.	.	.	.	.	.	.	.	.	.	.	.	.	.	.
=46	=46	=46	=46	=46	=46	=46	=46	=46	=46	=46	=46	=46	=46	=46	=46	=46	=46	=46	=46	=46	=46	=46
2.r	.	2.r	.	(2ccc/	(4aa-\	p	4fn\	.	2.r	2.r	.	2.r	2.r	.	2.r	.	2.r	.	2.r	.	2.r	.
.	.	.	.	.	[2gg\	.	4e\	.	.	.	.	.	.	.	.	.	.	.	.	.	.	.
.	.	.	.	4bb/	.	.	4d\)	.	.	.	.	.	.	.	.	.	.	.	.	.	.	.
=47	=47	=47	=47	=47	=47	=47	=47	=47	=47	=47	=47	=47	=47	=47	=47	=47	=47	=47	=47	=47	=47	=47
2.r	.	2.r	.	4bb-/	4gg\]	.	(4c#\	.	2.r	2.r	.	2.r	2.r	.	2.r	.	2.r	.	2.r	.	2.r	.
.	.	.	.	4aan/	4ff#\	.	4d\	.	.	.	.	.	.	.	.	.	.	.	.	.	.	.
.	.	.	.	[4aa-/)	4ee-\)	.	4cn\)	.	.	.	.	.	.	.	.	.	.	.	.	.	.	.
=48	=48	=48	=48	=48	=48	=48	=48	=48	=48	=48	=48	=48	=48	=48	=48	=48	=48	=48	=48	=48	=48	=48
(2ddd\	p	2.r	.	(4aa-/]	(2dd\	.	(4B\	.	2.r	2.r	.	2.r	2.r	.	2.r	.	2.r	.	2.r	.	2.r	.
.	.	.	.	2gg/)	.	.	4B-\	.	.	.	.	.	.	.	.	.	.	.	.	.	.	.
4ccc#\	.	.	.	.	4een\	.	4A\	.	.	.	.	.	.	.	.	.	.	.	.	.	.	.
=49	=49	=49	=49	=49	=49	=49	=49	=49	=49	=49	=49	=49	=49	=49	=49	=49	=49	=49	=49	=49	=49	=49
4cccn\	.	2.r	.	(4ff#/	2dd\	.	4A-\	.	2.r	2.r	.	2.r	2.r	.	2.r	.	2.r	.	2.r	.	2.r	.
4bb\	.	.	.	4ffn/	.	.	4G\	.	.	.	.	.	.	.	.	.	.	.	.	.	.	.
4aa\)	.	.	.	4dd/)	4b\)	.	4Fn\	.	.	.	.	.	.	.	.	.	.	.	.	.	.	.
=50	=50	=50	=50	=50	=50	=50	=50	=50	=50	=50	=50	=50	=50	=50	=50	=50	=50	=50	=50	=50	=50	=50
4gg\	.	2.r	.	(4gg/	(4cc\	.	4E\	.	2.r	2.r	.	2.r	2.r	.	2.r	.	2.r	.	2.r	.	2.r	.
4r	.	.	.	4ff/	4b\	.	4D\	.	.	.	.	.	.	.	.	.	.	.	.	.	.	.
4r	.	.	.	4ee/)	4cc\)	.	4C/)	.	.	.	.	.	.	.	.	.	.	.	.	.	.	.
=51	=51	=51	=51	=51	=51	=51	=51	=51	=51	=51	=51	=51	=51	=51	=51	=51	=51	=51	=51	=51	=51	=51
2.r	.	2.r	.	(4dd/	4a\	.	4F'\	.	2.r	2.r	.	2.r	2.r	.	2.r	.	2.r	.	2.r	.	2.r	.
.	.	.	.	4ff/)	4r	.	4D'\	.	.	.	.	.	.	.	.	.	.	.	.	.	.	.
.	.	.	.	4b/	4f\	.	4G'\	.	.	.	.	.	.	.	.	.	.	.	.	.	.	.
=52	=52	=52	=52	=52	=52	=52	=52	=52	=52	=52	=52	=52	=52	=52	=52	=52	=52	=52	=52	=52	=52	=52
*	*	*^	*	*	*	*	*	*	*	*	*	*	*	*	*	*	*	*	*	*	*	*
!	!	!	!	!	!	!	!	! a 2.	!	!	!	!	!	!	!	!	!	!	!	!	!	!	!
*	*	*	*	*	*	*	*	*	*	*v	*v	*	*	*	*	*	*	*	*	*	*	*	*
!	!	!	!	!	!	!	!	!	!	! a 2.	!	!	!	!	!	!	!	!	!	!	!	!
!	!	!	!	!	!	!	!	!	!	!	!	!	!	!	!	!	!	!	!	!	!	!
*	*	*	*	*	*	*	*	*	*	*	*	*v	*v	*	*	*	*	*	*	*	*	*
!	!	!	!	!	!	!	!	!	!	!	!	! a 2.	!	!	!	!	!	!	!	!	!
!	!	!	!	!	!	!	!	!	!	!	!	!	!	!	!	!	!	!	!	!	!
(2ggg\	.	(8E/L	4C\	f	[2.gg\	[2.g\	f	(2E\	f	[2.g/	f	[2.g/	f	4C/	f	(2gg\	f	(2g/	f	(8E/L	f
.	.	8G/	.	.	.	.	.	.	.	.	.	.	.	.	.	.	.	.	.	8G/	.
.	.	8c/	4r	.	.	.	.	.	.	.	.	.	.	4r	.	.	.	.	.	8c/	.
.	.	8G/)	.	.	.	.	.	.	.	.	.	.	.	.	.	.	.	.	.	8G/)	.
4fff#\	.	(8E-/	4r	.	.	.	.	4E-\	.	.	.	.	.	8C/L	.	4ff#\	.	4f#/	.	(8E-/	.
.	.	8G/J)	.	.	.	.	.	.	.	.	.	.	.	8C/J	.	.	.	.	.	8G/J)	.
=53	=53	=53	=53	=53	=53	=53	=53	=53	=53	=53	=53	=53	=53	=53	=53	=53	=53	=53	=53	=53	=53
8fffn\)	.	(8D/L	4GG\	.	2.gg\_	2.g\_	.	8D\)	.	4g/]	.	4g/]	.	4GG/	.	8ffn\)	.	8fn/)	.	(8D/L	.
8r	.	8G/	.	.	.	.	.	8r	.	.	.	.	.	.	.	8r	.	8r	.	8G/	.
8ddd'\	.	8B/	4r	.	.	.	.	8G'\	.	4g/	.	4g/	.	4GG/	.	8dd'\	.	8d'/	.	8B/	.
8r	.	8G/)	.	.	.	.	.	8r	.	.	.	.	.	.	.	8r	.	8r	.	8G/)	.
8bb'\	.	(8F/	4r	.	.	.	.	8F'\	.	4g/	.	4g/	.	4GG/	.	8b'\	.	8B'/	.	(8F/	.
8r	.	8G/J)	.	.	.	.	.	8r	.	.	.	.	.	.	.	8r	.	8r	.	8G/J)	.
=54	=54	=54	=54	=54	=54	=54	=54	=54	=54	=54	=54	=54	=54	=54	=54	=54	=54	=54	=54	=54	=54
(2ggg\	.	(8En/L	4C\	.	2.gg\_	2.g\_	.	(2En\	.	[2.g/	.	[2.g/	.	4C/	.	(2gg\	.	(2g/	.	(8En/L	.
.	.	8G/	.	.	.	.	.	.	.	.	.	.	.	.	.	.	.	.	.	8G/	.
.	.	8c/	4r	.	.	.	.	.	.	.	.	.	.	4r	.	.	.	.	.	8c/	.
.	.	8G/)	.	.	.	.	.	.	.	.	.	.	.	.	.	.	.	.	.	8G/)	.
4fff#\	.	(8E-/	4r	.	.	.	.	4E-\	.	.	.	.	.	8C/L	.	4ff#\	.	4f#/	.	(8E-/	.
.	.	8G/J)	.	.	.	.	.	.	.	.	.	.	.	8C/J	.	.	.	.	.	8G/J)	.
=55	=55	=55	=55	=55	=55	=55	=55	=55	=55	=55	=55	=55	=55	=55	=55	=55	=55	=55	=55	=55	=55
8fffn\)	.	(8D/L	4GG\	.	2.gg\]	2.g\]	.	8D\)	.	4g/]	.	4g/]	.	4GG/	.	8ffn\)	.	8fn/)	.	(8D/L	.
8r	.	8G/	.	.	.	.	.	8r	.	.	.	.	.	.	.	8r	.	8r	.	8G/	.
8ddd'\	.	8B/	4r	.	.	.	.	8G'\	.	4g/	.	4g/	.	4GG/	.	8ddd'\	.	8dd'\	.	8B/	.
8r	.	8G/)	.	.	.	.	.	8r	.	.	.	.	.	.	.	8r	.	8r	.	8G/)	.
8bb'\	.	(8F/	4r	.	.	.	.	8F'\	.	4g/	.	4g/	.	4GG/	.	8bb'\	.	8b'\	.	(8F/	.
8r	.	8G/J)	.	.	.	.	.	8r	.	.	.	.	.	.	.	8r	.	8r	.	8G/J)	.
=56	=56	=56	=56	=56	=56	=56	=56	=56	=56	=56	=56	=56	=56	=56	=56	=56	=56	=56	=56	=56	=56
*	*	*v	*v	*	*	*	*	*	*	*^	*	*^	*	*	*	*	*	*	*	*	*
!	!	! Bassi	!	!	!	!	!	!	!	!	!	!	!	!	!	!	!	!	!	!	!	!
!	!	!	!	!	!	!	!	!	!	!	!	!	!	!	!	!	!	!	!	!	!	!
4ccc\	.	4En\	.	4gg\	4ee\	.	4En\	.	4cc/	4c/	.	4cc/	4c/	.	4C/	.	8ccc'\	.	(8e/L	.	4En/	.
.	.	.	.	.	.	.	.	.	.	.	.	.	.	.	.	.	8r	.	8cc/)	.	.	.
4ccc\	.	4E\	.	4gg\	4ee\	.	4E\	.	4cc/	4c/	.	4cc/	4c/	.	4C/	.	8ccc'\	.	(8e/	.	(8c\L	.
.	.	.	.	.	.	.	.	.	.	.	.	.	.	.	.	.	8r	.	8cc/)	.	8g\)	.
4ccc\	.	4E\	.	4gg\	4ee\	.	4E\	.	4cc/	4c/	.	4cc/	4c/	.	4C/	.	8ccc'\	.	(8e/	.	(8c\	.
.	.	.	.	.	.	.	.	.	.	.	.	.	.	.	.	.	8r	.	8cc/J)	.	8g\J)	.
=57	=57	=57	=57	=57	=57	=57	=57	=57	=57	=57	=57	=57	=57	=57	=57	=57	=57	=57	=57	=57	=57	=57
4fff\	.	4F\	.	4aa\	4dd\	.	4F\	.	4cc/	4c/	.	4cc/	4c/	.	4C/	.	2aa\	.	(8d/L	.	(8A\L	.
.	.	.	.	.	.	.	.	.	.	.	.	.	.	.	.	.	.	.	8cc/)	.	8f\)	.
4fff\	.	4F\	.	4aa\	4dd\	.	4F\	.	4r	4r	.	4r	4r	.	4r	.	.	.	(8d/	.	(8A\	.
.	.	.	.	.	.	.	.	.	.	.	.	.	.	.	.	.	.	.	8cc/)	.	8f\)	.
4fff\	.	4F\	.	4aa\	4dd\	.	4F\	.	4r	4r	.	4r	4r	.	4r	.	(8ff\L	.	(8d/	.	(8A\	.
.	.	.	.	.	.	.	.	.	.	.	.	.	.	.	.	.	8dd\J)	.	8cc/J)	.	8f\J)	.
=58	=58	=58	=58	=58	=58	=58	=58	=58	=58	=58	=58	=58	=58	=58	=58	=58	=58	=58	=58	=58	=58	=58
4ddd\	.	4G\	.	4bb\	4ff\	.	4G\	.	4dd\	4g\	.	4dd\	4g\	.	4GG/	.	2ff\	.	(8d/L	.	(8G\L	.
.	.	.	.	.	.	.	.	.	.	.	.	.	.	.	.	.	.	.	8b/)	.	8f\)	.
4ddd\	.	4G\	.	4bb\	4ff\	.	4G\	.	4r	4r	.	4r	4r	.	4r	.	.	.	(8d/	.	(8G\	.
.	.	.	.	.	.	.	.	.	.	.	.	.	.	.	.	.	.	.	8b/)	.	8f\)	.
4ddd\	.	4G\	.	4bb\	4ff\	.	4G\	.	4r	4r	.	4r	4r	.	4r	.	(8dd\L	.	(8d/	.	(8G\	.
.	.	.	.	.	.	.	.	.	.	.	.	.	.	.	.	.	8b\J)	.	8b/J)	.	8f\J)	.
=59	=59	=59	=59	=59	=59	=59	=59	=59	=59	=59	=59	=59	=59	=59	=59	=59	=59	=59	=59	=59	=59	=59
4ccc\	.	4C/	.	4ccc\	4ee\	.	4C/	.	4cc/	4e/	.	4cc/	4e/	.	4C/	.	4cc\	.	4cc/ 4e/	.	4e/ 4G/	.
4r	.	4r	.	4r	4r	.	4r	.	4r	4r	.	4r	4r	.	4r	.	4r	.	4r	.	4r	.
4r	.	4r	.	4r	4r	.	4r	.	4r	4r	.	4r	4r	.	4r	.	4r	.	4r	.	4r	.
=60|!	=60|!	=60:|!	=60:|!	=60:|!	=60:|!	=60:|!	=60:|!	=60:|!	=60:|!	=60:|!	=60:|!	=60:|!	=60:|!	=60:|!	=60:|!	=60:|!	=60:|!	=60:|!	=60:|!	=60:|!	=60:|!	=60:|!
*M3/4	*	*>C	*	*	*	*	*	*	*>C	*	*	*	*	*	*>C	*	*>C	*	*>C	*	*>C	*
! TRIO	!	!	!	!	!	!	!	!	!	!	!	!	!	!	!	!	!	!	!	!	!	!
*	*	*M3/4	*	*	*	*	*	*	*M3/4	*	*	*	*	*	*M3/4	*	*M3/4	*	*M3/4	*	*M3/4	*
!	!	! TRIO	!	!	!	!	!	!	! TRIO	!	!	!	!	!	! TRIO	!	! TRIO	!	! TRIO	!	! TRIO	!
*	*	*	*	*v	*v	*	*^	*	*	*	*	*	*	*	*	*	*	*	*	*	*	*
*	*	*	*	*>C	*	*>C	*	*	*	*	*	*	*	*	*	*	*	*	*	*	*	*
*	*	*	*	*M3/4	*	*M3/4	*	*	*	*	*	*	*	*	*	*	*	*	*	*	*	*
!	!	!	!	! TRIO	!	! TRIO	!	!	!	!	!	!	!	!	!	!	!	!	!	!	!	!
!	!	!	!	!	!	!	!	!	!	!	!	!	!	!	!	!	!	!	!	!	!	!
*	*	*	*	*	*	*	*	*	*	*	*	*v	*v	*	*	*	*	*	*	*	*	*
*	*	*	*	*	*	*	*	*	*	*	*	*>C	*	*	*	*	*	*	*	*	*
*	*	*	*	*	*	*	*	*	*	*	*	*M3/4	*	*	*	*	*	*	*	*	*
!	!	!	!	!	!	!	!	!	!	!	!	! TRIO	!	!	!	!	!	!	!	!	!
!	!	!	!	!	!	!	!	!	!	!	!	!	!	!	!	!	!	!	!	!	!
(2.b\	p	2.r	.	2.r	.	(2.f\	(2.d\	p	2.r	(2.g\	p	2.r	.	2.r	.	2.r	.	2.r	.	2.r	.
=61	=61	=61	=61	=61	=61	=61	=61	=61	=61	=61	=61	=61	=61	=61	=61	=61	=61	=61	=61	=61	=61
*	*	*	*	*	*	*	*	*	*	*	*	*^	*	*	*	*	*	*	*	*	*
4cc\)	.	2.r	.	4r	.	4e\)	4c\)	.	2.r	4c\)	.	2.r	2.r	.	2.r	.	4r	.	2.r	.	2.r	.
4r	.	.	.	4r	.	4r	4r	.	.	4r	.	.	.	.	.	.	4r	.	.	.	.	.
!	!	!	!	! I.	!	!	!	!	!	!	!	!	!	!	!	!	!	!	!	!	!	!
4r	.	.	.	8aa\L	p	4r	4r	.	.	4r	.	.	.	.	.	.	8a/L	p	.	.	.	.
.	.	.	.	8gg\J	.	.	.	.	.	.	.	.	.	.	.	.	8g/J	.	.	.	.	.
=62	=62	=62	=62	=62	=62	=62	=62	=62	=62	=62	=62	=62	=62	=62	=62	=62	=62	=62	=62	=62	=62	=62
2.r	.	4r	.	(8ff#\L	.	2.r	2.r	.	2.r	2.r	.	2.r	2.r	.	2.r	.	(8f#/L	.	4r	.	4r	.
.	.	.	.	8gg\)	.	.	.	.	.	.	.	.	.	.	.	.	8g/)	.	.	.	.	.
.	.	4B'\	p	8ffn'\	.	.	.	.	.	.	.	.	.	.	.	.	8fn'/	.	4d'/	p	4G'/	p
.	.	.	.	8dd'\	.	.	.	.	.	.	.	.	.	.	.	.	8d'/	.	.	.	.	.
.	.	4c'\	.	8ee'\	.	.	.	.	.	.	.	.	.	.	.	.	8e'/	.	4c'/	.	4G'/	.
.	.	.	.	8cc'\J	.	.	.	.	.	.	.	.	.	.	.	.	8c'/J	.	.	.	.	.
=63	=63	=63	=63	=63	=63	=63	=63	=63	=63	=63	=63	=63	=63	=63	=63	=63	=63	=63	=63	=63	=63	=63
2.r	.	4G'\	.	(8ee\L	.	2.r	2.r	.	2.r	2.r	.	2.r	2.r	.	2.r	.	(8e/L	.	4B'/	.	4G'/	.
.	.	.	.	8dd\)	.	.	.	.	.	.	.	.	.	.	.	.	8d/)	.	.	.	.	.
.	.	4r	.	8cc'\	.	.	.	.	.	.	.	.	.	.	.	.	8c'/	.	4r	.	4r	.
.	.	.	.	8b'\	.	.	.	.	.	.	.	.	.	.	.	.	8B'/	.	.	.	.	.
.	.	4r	.	8a'\	.	.	.	.	.	.	.	.	.	.	.	.	8A'/	.	4r	.	4r	.
.	.	.	.	8g'\J	.	.	.	.	.	.	.	.	.	.	.	.	8G'/J	.	.	.	.	.
=64	=64	=64	=64	=64	=64	=64	=64	=64	=64	=64	=64	=64	=64	=64	=64	=64	=64	=64	=64	=64	=64	=64
*	*	*	*	*^	*	*	*	*	*	*	*	*	*	*	*	*	*	*	*	*	*	*
(2.b\	.	2.r	.	2.r	2.r	.	(2.f\	(2.d\	.	2.r	(2.g\	.	2.r	2.r	.	2.r	.	2.r	.	2.r	.	2.r	.
=65	=65	=65	=65	=65	=65	=65	=65	=65	=65	=65	=65	=65	=65	=65	=65	=65	=65	=65	=65	=65	=65	=65	=65
*	*	*	*	*v	*v	*	*	*	*	*	*	*	*	*	*	*	*	*	*	*	*	*	*
4cc\)	.	2.r	.	4r	.	4e\)	4c\)	.	2.r	4c\)	.	2.r	2.r	.	2.r	.	4r	.	2.r	.	2.r	.
4r	.	.	.	4r	.	4r	4r	.	.	4r	.	.	.	.	.	.	4r	.	.	.	.	.
4r	.	.	.	8aa\L	.	4r	4r	.	.	4r	.	.	.	.	.	.	8a/L	.	.	.	.	.
.	.	.	.	8gg\J	.	.	.	.	.	.	.	.	.	.	.	.	8g/J	.	.	.	.	.
=66	=66	=66	=66	=66	=66	=66	=66	=66	=66	=66	=66	=66	=66	=66	=66	=66	=66	=66	=66	=66	=66	=66
2.r	.	4r	.	(8ff#\L	.	2.r	2.r	.	2.r	2.r	.	2.r	2.r	.	2.r	.	(8f#/L	.	4r	.	4r	.
.	.	.	.	8gg\)	.	.	.	.	.	.	.	.	.	.	.	.	8g/)	.	.	.	.	.
.	.	4r	.	8ffn'\	.	.	.	.	.	.	.	.	.	.	.	.	8fn'/	.	4r	.	4r	.
.	.	.	.	8dd'\	.	.	.	.	.	.	.	.	.	.	.	.	8d'/	.	.	.	.	.
.	.	4G'\	.	8b'\	.	.	.	.	.	.	.	.	.	.	.	.	8B'/	.	4G'/	.	4F'/	.
.	.	.	.	8dd'\J	.	.	.	.	.	.	.	.	.	.	.	.	8d'/J	.	.	.	.	.
=67	=67	=67	=67	=67	=67	=67	=67	=67	=67	=67	=67	=67	=67	=67	=67	=67	=67	=67	=67	=67	=67	=67
2.r	.	4C'/	.	4cc'\	.	2.r	2.r	.	2.r	2.r	.	2.r	2.r	.	2.r	.	4c'/	.	4G'/	.	4E'/	.
.	.	4r	.	(4ee\	.	.	.	.	.	.	.	.	.	.	.	.	(4e/	.	4r	.	4r	.
.	.	4r	.	4cc\)	.	.	.	.	.	.	.	.	.	.	.	.	4c/)	.	4r	.	4r	.
=68:!!:	=68:!!:	=68:!!:	=68:!!:	=68:!!:	=68:!!:	=68:!!:	=68:!!:	=68:!!:	=68:!!:	=68:!!:	=68:!!:	=68:!!:	=68:!!:	=68:!!:	=68:!!:	=68:!!:	=68:!!:	=68:!!:	=68:!!:	=68:!!:	=68:!!:	=68:!!:
*>C	*	*>D	*	*	*	*>D	*	*	*	*	*	*	*	*	*>D	*	*>D	*	*>D	*	*>D	*
*	*	*	*	*^	*	*	*	*	*	*	*	*	*	*	*	*	*	*	*	*	*	*
*	*	*	*	*>D	*	*	*	*	*	*	*	*	*	*	*	*	*	*	*	*	*	*	*
*	*	*	*	*	*	*	*	*	*	*v	*v	*	*	*	*	*	*	*	*	*	*	*	*
*	*	*	*	*	*	*	*	*	*	*>D	*	*	*	*	*	*	*	*	*	*	*	*
!	!	!	!	!	!	!	!	!	!	! a 2.	!	!	!	!	!	!	!	!	!	!	!	!
!	!	!	!	!	!	!	!	!	!	!	!	!	!	!	!	!	!	!	!	!	!	!
*	*	*	*	*	*	*	*	*	*	*	*	*v	*v	*	*	*	*	*	*	*	*	*
*	*	*	*	*	*	*	*	*	*	*	*	*>D	*	*	*	*	*	*	*	*	*
!	!	!	!	!	!	!	!	!	!	!	!	! a 2.	!	!	!	!	!	!	!	!	!
!	!	!	!	!	!	!	!	!	!	!	!	!	!	!	!	!	!	!	!	!	!
2.gg#\	f	4E\	f	2.dd\	2.b\	f	2.d\	2.B\	ff	4e/	f	4e/	f	2.r	.	2.gg#'\	f	4d/	f	4B/	f
.	.	8e\L	.	.	.	.	.	.	.	4r	.	4r	.	.	.	.	.	8d/L	.	8B/L	.
.	.	8e\J	.	.	.	.	.	.	.	.	.	.	.	.	.	.	.	8d/J	.	8B/J	.
.	.	4e\	.	.	.	.	.	.	.	8e/L	.	8e/L	.	.	.	.	.	4d/	.	4B/	.
.	.	.	.	.	.	.	.	.	.	8e/J	.	8e/J	.	.	.	.	.	.	.	.	.
=69	=69	=69	=69	=69	=69	=69	=69	=69	=69	=69	=69	=69	=69	=69	=69	=69	=69	=69	=69	=69	=69
2.aa\	.	4E\	.	2.ee\	2.cc\	.	2.c\	2.A\	.	4e/	.	4e/	.	2.r	.	2.aa'\	.	4c/	.	4A/	.
.	.	8e\L	.	.	.	.	.	.	.	4r	.	4r	.	.	.	.	.	8c/L	.	8A/L	.
.	.	8e\J	.	.	.	.	.	.	.	.	.	.	.	.	.	.	.	8c/J	.	8A/J	.
.	.	4e\	.	.	.	.	.	.	.	8e/L	.	8e/L	.	.	.	.	.	4c/	.	4A/	.
.	.	.	.	.	.	.	.	.	.	8e/J	.	8e/J	.	.	.	.	.	.	.	.	.
=70	=70	=70	=70	=70	=70	=70	=70	=70	=70	=70	=70	=70	=70	=70	=70	=70	=70	=70	=70	=70	=70
2.ccc\	.	4E\	.	2.ff#\	2.dd#\	.	2.f#\	2.c\	.	4e/	.	4e/	.	2.r	.	2.ccc'\	.	4d#/	.	4A/	.
.	.	8e\L	.	.	.	.	.	.	.	4r	.	4r	.	.	.	.	.	8d#/L	.	8A/L	.
.	.	8e\J	.	.	.	.	.	.	.	.	.	.	.	.	.	.	.	8d#/J	.	8A/J	.
.	.	4e\	.	.	.	.	.	.	.	8e/L	.	8e/L	.	.	.	.	.	4d#/	.	4A/	.
.	.	.	.	.	.	.	.	.	.	8e/J	.	8e/J	.	.	.	.	.	.	.	.	.
=71	=71	=71	=71	=71	=71	=71	=71	=71	=71	=71	=71	=71	=71	=71	=71	=71	=71	=71	=71	=71	=71
2.bb\	.	4E\	.	2.gg#\	2.ee\	.	2.B\	[2.G#\	.	4e/	.	4e/	.	2.r	.	2.bb'\	.	4e/	.	4G#/	.
.	.	8e\L	.	.	.	.	.	.	.	4r	.	4r	.	.	.	.	.	8e/L	.	8G#/L	.
.	.	8e\J	.	.	.	.	.	.	.	.	.	.	.	.	.	.	.	8e/J	.	8G#/J	.
.	.	4e\	.	.	.	.	.	.	.	8e/L	.	8e/L	.	.	.	.	.	4e/	.	4G#/	.
.	.	.	.	.	.	.	.	.	.	8e/J	.	8e/J	.	.	.	.	.	.	.	.	.
=72	=72	=72	=72	=72	=72	=72	=72	=72	=72	=72	=72	=72	=72	=72	=72	=72	=72	=72	=72	=72	=72
2.ddd\	.	4E\	.	2.bb\	2.ffn\	.	2.fn\	2.G#\]	.	4e/	.	4e/	.	2.r	.	2.ddd'\	.	4B/	.	4G#/	.
.	.	8e\L	.	.	.	.	.	.	.	4r	.	4r	.	.	.	.	.	8B/L	.	8G#/L	.
.	.	8e\J	.	.	.	.	.	.	.	.	.	.	.	.	.	.	.	8B/J	.	8G#/J	.
.	.	4e\	.	.	.	.	.	.	.	8e/L	.	8e/L	.	.	.	.	.	4B/	.	4G#/	.
.	.	.	.	.	.	.	.	.	.	8e/J	.	8e/J	.	.	.	.	.	.	.	.	.
=73	=73	=73	=73	=73	=73	=73	=73	=73	=73	=73	=73	=73	=73	=73	=73	=73	=73	=73	=73	=73	=73
2.ccc\	.	4E\	.	2.aa\	2.ee\	.	2.e\	2.A\	.	4e/	.	4e/	.	2.r	.	2.ccc'\	.	4c/	.	4A/	.
.	.	8e\L	.	.	.	.	.	.	.	4r	.	4r	.	.	.	.	.	8c/L	.	8A/L	.
.	.	8e\J	.	.	.	.	.	.	.	.	.	.	.	.	.	.	.	8c/J	.	8A/J	.
.	.	4e\	.	.	.	.	.	.	.	8e/L	.	8e/L	.	.	.	.	.	4c/	.	4A/	.
.	.	.	.	.	.	.	.	.	.	8e/J	.	8e/J	.	.	.	.	.	.	.	.	.
=74	=74	=74	=74	=74	=74	=74	=74	=74	=74	=74	=74	=74	=74	=74	=74	=74	=74	=74	=74	=74	=74
(2.fff#\	.	4E\	.	(2.ccc\	(2.aa\	.	(2.d#\	(2.c\	.	4e/	.	4e/	.	2.r	.	2.dd#'\	.	4c/	.	4A/	.
.	.	8e\L	.	.	.	.	.	.	.	4r	.	4r	.	.	.	.	.	8c/L	.	8A/L	.
.	.	8e\J	.	.	.	.	.	.	.	.	.	.	.	.	.	.	.	8c/J	.	8A/J	.
.	.	4e\	.	.	.	.	.	.	.	8e/L	.	8e/L	.	.	.	.	.	4c/	.	4A/	.
.	.	.	.	.	.	.	.	.	.	8e/J	.	8e/J	.	.	.	.	.	.	.	.	.
=75	=75	=75	=75	=75	=75	=75	=75	=75	=75	=75	=75	=75	=75	=75	=75	=75	=75	=75	=75	=75	=75
4eee\)	.	4E\	.	4bb\)	4gg#\)	.	4e\)	4B\)	.	4e/	.	4e/	.	2.r	.	2.ee'\	.	4B/	.	4G#/	.
4r	.	4r	.	4r	4r	.	4r	4r	.	4r	.	4r	.	.	.	.	.	4b\	p	4g#\	p
4r	.	4r	.	4r	4r	.	4r	4r	.	4r	.	4r	.	.	.	.	.	4b\	.	4g#\	.
=76	=76	=76	=76	=76	=76	=76	=76	=76	=76	=76	=76	=76	=76	=76	=76	=76	=76	=76	=76	=76	=76
*	*	*	*	*	*	*	*	*	*	*^	*	*^	*	*	*	*	*	*	*	*	*
2.r	.	4B\	p	2.r	2.r	.	2.r	2.r	.	2.r	2.r	.	2.r	2.r	.	2.r	.	(2.dd#\	p	4r	.	4r	.
.	.	4r	.	.	.	.	.	.	.	.	.	.	.	.	.	.	.	.	.	4a/	.	4f#\	.
.	.	4r	.	.	.	.	.	.	.	.	.	.	.	.	.	.	.	.	.	4a/	.	4f#\	.
=77	=77	=77	=77	=77	=77	=77	=77	=77	=77	=77	=77	=77	=77	=77	=77	=77	=77	=77	=77	=77	=77	=77	=77
2.r	.	4e\	.	2.r	2.r	.	2.r	2.r	.	2.r	2.r	.	2.r	2.r	.	2.r	.	2.ee\	.	4r	.	4r	.
.	.	4r	.	.	.	.	.	.	.	.	.	.	.	.	.	.	.	.	.	4g#/	.	4e\	.
.	.	4r	.	.	.	.	.	.	.	.	.	.	.	.	.	.	.	.	.	4g#/	.	4e\	.
=78	=78	=78	=78	=78	=78	=78	=78	=78	=78	=78	=78	=78	=78	=78	=78	=78	=78	=78	=78	=78	=78	=78	=78
2.r	.	4A\	.	2.r	2.r	.	2.r	2.r	.	2.r	2.r	.	2.r	2.r	.	2.r	.	2.cc#\	.	4r	.	4r	.
.	.	4r	.	.	.	.	.	.	.	.	.	.	.	.	.	.	.	.	.	4gn/	.	4e\	.
.	.	4r	.	.	.	.	.	.	.	.	.	.	.	.	.	.	.	.	.	4g/	.	4e\	.
=79	=79	=79	=79	=79	=79	=79	=79	=79	=79	=79	=79	=79	=79	=79	=79	=79	=79	=79	=79	=79	=79	=79	=79
2.r	.	4d\	.	2.r	2.r	.	2.r	2.r	.	2.r	2.r	.	2.r	2.r	.	2.r	.	2.ddn\)	.	4r	.	4r	.
.	.	4r	.	.	.	.	.	.	.	.	.	.	.	.	.	.	.	.	.	4f#/	.	4d\	.
.	.	4r	.	.	.	.	.	.	.	.	.	.	.	.	.	.	.	.	.	4f#/	.	4d\	.
=80	=80	=80	=80	=80	=80	=80	=80	=80	=80	=80	=80	=80	=80	=80	=80	=80	=80	=80	=80	=80	=80	=80	=80
(2.b\	p	2.r	.	2.r	2.r	.	(2.fn\	(2.d\	pp	2.r	(2.g\	p	2.r	2.r	.	2.r	.	2.r	.	2.r	.	2.r	.
=81	=81	=81	=81	=81	=81	=81	=81	=81	=81	=81	=81	=81	=81	=81	=81	=81	=81	=81	=81	=81	=81	=81	=81
*	*	*	*	*v	*v	*	*	*	*	*	*	*	*	*	*	*	*	*	*	*	*	*	*
4cc\)	.	2.r	.	4r	.	4e\)	4c\)	.	2.r	4c\)	.	2.r	2.r	.	2.r	.	4r	.	2.r	.	2.r	.
4r	.	.	.	4r	.	4r	4r	.	.	4r	.	.	.	.	.	.	4r	.	.	.	.	.
!	!	!	!	! [I.]	!	!	!	!	!	!	!	!	!	!	!	!	!	!	!	!	!	!
!	!	!	!	! Assume only one oboe is to play, like in the beginning the Trio.	!	!	!	!	!	!	!	!	!	!	!	!	!	!	!	!	!	!
4r	.	.	.	8aa\L	p	4r	4r	.	.	4r	.	.	.	.	.	.	8a/L	.	.	.	.	.
.	.	.	.	8gg\J	.	.	.	.	.	.	.	.	.	.	.	.	8g/J	.	.	.	.	.
=82	=82	=82	=82	=82	=82	=82	=82	=82	=82	=82	=82	=82	=82	=82	=82	=82	=82	=82	=82	=82	=82	=82
2.r	.	(2B\	.	(8ff#\L	.	2.r	2.r	.	2.r	2.r	.	2.r	2.r	.	2.r	.	(8f#/L	.	(2d/	.	[2.Gn/	.
.	.	.	.	8gg\)	.	.	.	.	.	.	.	.	.	.	.	.	8g/)	.	.	.	.	.
.	.	.	.	8ffn\	.	.	.	.	.	.	.	.	.	.	.	.	8fn/	.	.	.	.	.
.	.	.	.	8dd\	.	.	.	.	.	.	.	.	.	.	.	.	8d/	.	.	.	.	.
.	.	4c\)	.	8ee\	.	.	.	.	.	.	.	.	.	.	.	.	8e/	.	4c/)	.	.	.
.	.	.	.	8cc\J	.	.	.	.	.	.	.	.	.	.	.	.	8c/J	.	.	.	.	.
=83	=83	=83	=83	=83	=83	=83	=83	=83	=83	=83	=83	=83	=83	=83	=83	=83	=83	=83	=83	=83	=83	=83
2.r	.	4G\	.	(8ee\L	.	2.r	2.r	.	2.r	2.r	.	2.r	2.r	.	2.r	.	(8e/L	.	4B/	.	4G/]	.
.	.	.	.	8dd\)	.	.	.	.	.	.	.	.	.	.	.	.	8d/)	.	.	.	.	.
.	.	4r	.	8cc\	.	.	.	.	.	.	.	.	.	.	.	.	8c/	.	4r	.	4r	.
.	.	.	.	8b\	.	.	.	.	.	.	.	.	.	.	.	.	8B/	.	.	.	.	.
.	.	4r	.	8a\	.	.	.	.	.	.	.	.	.	.	.	.	8A/	.	4r	.	4r	.
.	.	.	.	8g\J	.	.	.	.	.	.	.	.	.	.	.	.	8G/J	.	.	.	.	.
*	*	*	*	*	*	*	*	*	*	*clefF4	*	*	*	*	*	*	*	*	*	*	*	*
=84	=84	=84	=84	=84	=84	=84	=84	=84	=84	=84	=84	=84	=84	=84	=84	=84	=84	=84	=84	=84	=84	=84
(2.bb\	.	2.r	.	(2.b\	.	(2.f\	(2.d\	.	2.r	(2.GG\	.	2.r	2.r	.	2.r	.	2.r	.	2.r	.	2.r	.
=85	=85	=85	=85	=85	=85	=85	=85	=85	=85	=85	=85	=85	=85	=85	=85	=85	=85	=85	=85	=85	=85	=85
4ccc\)	.	2.r	.	4cc\)	.	4e\)	4c\)	.	2.r	4CC\)	.	2.r	2.r	.	2.r	.	4r	.	2.r	.	2.r	.
4r	.	.	.	4r	.	4r	4r	.	.	4r	.	.	.	.	.	.	4r	.	.	.	.	.
4r	.	.	.	8aa\L	.	4r	4r	.	.	4r	.	.	.	.	.	.	8a/L	.	.	.	.	.
.	.	.	.	8gg\J	.	.	.	.	.	.	.	.	.	.	.	.	8g/J	.	.	.	.	.
=86	=86	=86	=86	=86	=86	=86	=86	=86	=86	=86	=86	=86	=86	=86	=86	=86	=86	=86	=86	=86	=86	=86
*	*	*	*	*	*	*v	*v	*	*	*	*	*	*	*	*	*	*	*	*	*	*	*
8r	.	(2.G\	.	(8ff#\L	.	8r	.	2.r	2.r	.	2.r	2.r	.	2.r	.	(8f#/L	.	2B/	.	(2D/	.
!	!	!	!	!	!	! I.	!	!	!	!	!	!	!	!	!	!	!	!	!	!	!
(8gg\L	.	.	.	8gg\)	.	8B'\L	.	.	.	.	.	.	.	.	.	8g/)	.	.	.	.	.
8bb\	.	.	.	8ffn\	.	8d'\	.	.	.	.	.	.	.	.	.	8fn/	.	.	.	.	.
8ddd\	.	.	.	8dd\	.	8f'\	.	.	.	.	.	.	.	.	.	8d/	.	.	.	.	.
8fff\	.	.	.	8b\	.	(8G\	.	.	.	.	.	.	.	.	.	8B/	.	(8d/L	.	4F/)	.
8ddd\J)	.	.	.	8dd\J	.	8B\J)	.	.	.	.	.	.	.	.	.	8d/J	.	8B/J)	.	.	.
=87	=87	=87	=87	=87	=87	=87	=87	=87	=87	=87	=87	=87	=87	=87	=87	=87	=87	=87	=87	=87	=87
!	!	! Menuetto da capo	!	!	!	!	!	!	!	!	!	!	!	!	!	!	!	!	!	!	!
*	*	*	*	*	*	*	*	*v	*v	*	*	*	*	*	*	*	*	*	*	*	*
*	*	*	*	*	*	*	*	*	*	*v	*v	*	*	*	*	*	*	*	*	*
4ccc'\	.	4C'/)xx	.	4cc'\	.	4c'\	.	2.r	.	2.r	.	2.r	.	4c'/	.	4c'/xx	.	4E'/	.
(4eee\	.	4r	.	(4ee\	.	(4e\	.	.	.	.	.	.	.	(4e/	.	4r	.	4r	.
4ccc\)	.	4r	.	4cc\)	.	4c\)	.	.	.	.	.	.	.	4c/)	.	4r	.	4r	.
*	*	*	*	*	*	*	*	*clefG2	*	*	*	*	*	*	*	*	*	*	*
==:|!	==:|!	==:|!	==:|!	==:|!	==:|!	==:|!	==:|!	==:|!	==:|!	==:|!	==:|!	==:|!	==:|!	==:|!	==:|!	==:|!	==:|!	==:|!	==:|!
*-	*-	*-	*-	*-	*-	*-	*-	*-	*-	*-	*-	*-	*-	*-	*-	*-	*-	*-	*-
!!!RWG: Key is interpreted using the Humdrum key tool.
!!!OPT: Jupiter
!!!AFT: stage2
!!!END: 1996/07/30
!!format changes:
!!content changes:
!!public access: complete
!!!KEY: 519901951
!!!EMD: Converted from MuseData to Humdrum Dec 16, 2000, by Andreas Kornstaedt using muse2kern.
